X: 11501
T: RUBEZAHL'S WALTZ
C: T.H.
P: Copyright.
%R: waltz
B: W. Hamilton "Universal Tune-Book" Vol. 1 Glasgow 1844 p.150 #1
S: http://imslp.org/wiki/Hamilton's_Universal_Tune-Book_(Various)
Z: 2016 John Chambers <jc:trillian.mit.edu>
M: 3/4
L: 1/8
K: G
% - - - - - - - - - - - - - - - - - - - - - - - - -
d2 |\
(g2d2)B2 | c2(dc).B.c |\
(d2g2b2) | (b2a2)d2 |\
f2(gf).e.f | (g2e2)^c2 |\
(d2=c2)B2 | B2A2 :|\
|: d2 | gdBdgb |
afdfac' |\
(b2a2)g2 | (g2f2)e2 |\
d2Bcdg | e2a2f2 |\
[1 g2(fgba) | g4 :|\
[2 gfgdcA | G4 |]
% - - - - - - - - - - - - - - - - - - - - - - - - -

%%sep 1 1 500
%%sep 1 1 500

